X: 33900
T: Red Pen, The
R: reel
M: 4/4
K: Dmajor
ABAF GFEG|FAFD G~E3|ABAF (3ABc dA|BdAG FDD2:|
|:fgfde2fg|afdf efge|1 fgab~a3g|
fdBA~d3e:|2 cAGE~d3A|BdAG FDD2||

